!!!SOCIAL_FUNCTION:	songs used in the treatment of the sick
!!!PDT:	1929
!!!OTL: No_66_We_Smoke_Together.krn
!!!REG: Southwest
!!!LANG: Non-Tone
!!!LING_GROUP: Uto-Aztecan
**kern
*staff1
=1-
*clefF4
*k[b-e-a-d-]
*M2/4
16d-\LK
8.d-\J
8d-\L
8c\J
=2
(8.A-\L
16G\Jk)
(8G\L
8F\J)
=3
16A-\LK
8.A-\J
8G\L
8F\J
=4
(16G\LL
16F\J)
[8G\J
(8.G\L]
16F\Jk)
=5!|:
8.G\L
16F\Jk
8G\L
8G\J
=6
8F\L
8F\J
8G\L
8F\J
=7
4F\
8F\L
8F\J
=8||
*M3/4
8F\L
[8F\J
8F\L]
[8F\J
4F\]
=9
*M2/4
16A-\LK
8.A-\J
8G\L
8F\J
=10
4F\
8F\
8r
==:|!
*-
